.files/icons/devices/Router#1.svg

<svg fill="none" height="48" viewBox="0 0 48 48" width="48" xmlns="http://www.w3.org/2000/svg"><g clip-rule="evenodd" fill="#000" fill-rule="evenodd"><path d="m31 18c-.5523 0-1 .4477-1 1v11h-24c-1.10457 0-2 .8954-2 2v8c0 1.1046.89543 2 2 2h36c1.1046 0 2-.8954 2-2v-8c0-1.1046-.8954-2-2-2h-8v-11c0-.5523-.4477-1-1-1zm-23 17c0-.5523.44772-1 1-1h12c.5523 0 1 .4477 1 1v2c0 .5523-.4477 1-1 1h-12c-.55228 0-1-.4477-1-1z"/><path d="m44.2726 13.1429 2.7274-2.2218c-3.68-4.35207-9.1319-6.9211-15.0074-6.9211-5.8674 0-11.3124 2.56189-14.9926 6.9036l2.7248 2.225c3.0137-3.55553 7.4647-5.64971 12.2678-5.64971 4.8098 0 9.2663 2.10003 12.28 5.66401zm-5.8459 4.5714 2.5733-2.2831c-2.203-2.8745-5.4794-4.574-9.0105-4.574-3.5195 0-6.7863 1.6883-8.9895 4.5467l2.5674 2.2909c1.5761-2.0448 3.9059-3.2489 6.4221-3.2489 2.5245 0 4.8612 1.2121 6.4372 3.2684z" opacity=".3"/></g></svg>

<svg width="48" height="48" viewBox="0 0 48 48" fill="none" xmlns="http://www.w3.org/2000/svg">
<path fill-rule="evenodd" clip-rule="evenodd" d="M31 18C30.4477 18 30 18.4477 30 19V30H6C4.89543 30 4 30.8954 4 32V40C4 41.1046 4.89543 42 6 42H42C43.1046 42 44 41.1046 44 40V32C44 30.8954 43.1046 30 42 30H34V19C34 18.4477 33.5523 18 33 18H31ZM8 35C8 34.4477 8.44772 34 9 34H21C21.5523 34 22 34.4477 22 35V37C22 37.5523 21.5523 38 21 38H9C8.44772 38 8 37.5523 8 37V35Z" fill="black"/>
<path opacity="0.3" fill-rule="evenodd" clip-rule="evenodd" d="M44.2726 13.1429L47 10.9211C43.32 6.56903 37.8681 4 31.9926 4C26.1252 4 20.6802 6.56189 17 10.9036L19.7248 13.1286C22.7385 9.57307 27.1895 7.47889 31.9926 7.47889C36.8024 7.47889 41.2589 9.57892 44.2726 13.1429ZM38.4267 17.7143L41 15.4312C38.797 12.5567 35.5206 10.8572 31.9895 10.8572C28.47 10.8572 25.2032 12.5455 23 15.4039L25.5674 17.6948C27.1435 15.65 29.4733 14.4459 31.9895 14.4459C34.514 14.4459 36.8507 15.658 38.4267 17.7143Z" fill="black"/>
</svg>
